public/clients/devtron.svg

<svg xmlns="http://www.w3.org/2000/svg" fill="none" viewBox="0 0 1500 400"><path fill="#442b75" fill-rule="evenodd" d="M574.569 264.922c7.525 0 13.582-1.526 18.157-4.577 4.578-3.052 8.137-6.866 10.683-11.444 2.541-4.578 4.22-9.509 5.035-14.803.811-5.287 1.221-10.171 1.221-14.648 0-4.472-.41-9.356-1.221-14.649-.815-5.287-2.494-10.223-5.035-14.801-2.546-4.578-6.105-8.392-10.683-11.443-4.575-3.054-10.632-4.578-18.157-4.578-7.529 0-13.58 1.524-18.158 4.578-4.578 3.051-8.088 6.865-10.528 11.443-2.442 4.578-4.073 9.514-4.884 14.801-.815 5.293-1.221 10.177-1.221 14.649 0 4.477.406 9.361 1.221 14.648.811 5.294 2.442 10.225 4.884 14.803 2.44 4.578 5.95 8.392 10.528 11.444 4.578 3.051 10.629 4.577 18.158 4.577Zm35.096-105.023V90.664h36.317v128.482c0 10.58-1.021 19.836-3.053 27.771-2.036 7.935-4.73 14.8-8.087 20.599-3.357 5.799-7.171 10.582-11.443 14.345-4.272 3.767-8.651 6.866-13.124 9.308-10.581 5.493-22.482 8.34-35.706 8.544-13.634-.204-25.741-3.051-36.317-8.544-4.476-2.442-8.902-5.541-13.274-9.308-4.378-3.763-8.241-8.494-11.598-14.191-3.357-5.695-6.056-12.513-8.089-20.448-2.034-7.934-3.051-17.19-3.051-27.772 0-10.577.963-19.837 2.9-27.771 1.932-7.935 4.472-14.801 7.629-20.6 3.153-5.798 6.714-10.628 10.682-14.497 3.966-3.862 8.087-7.019 12.359-9.459 9.767-5.695 20.953-8.746 33.572-9.156a63.687 63.687 0 0 1 18.309 4.578c5.083 2.24 10.273 5.645 15.566 10.223 3.525 3.052 5.661 5.429 6.408 7.131Zm161.442 39.715a78.506 78.506 0 0 0-3.814-9.765c-1.527-3.253-3.615-6.205-6.257-8.85-2.647-2.644-5.799-4.732-9.461-6.257-3.663-1.526-7.935-2.289-12.817-2.289-4.883 0-9.155.763-12.818 2.289-3.663 1.525-6.82 3.613-9.461 6.257-2.646 2.645-4.782 5.597-6.409 8.85-1.63 3.257-2.851 6.512-3.662 9.765h64.699Zm38.453 0c.406 3.051.764 6.208 1.067 9.461.306 3.257.458 6.714.458 10.375v5.493H704.272c.405 3.463.915 6.972 1.526 10.531a49.561 49.561 0 0 0 3.051 10.528c2.236 5.293 5.695 9.971 10.377 14.037 4.678 4.073 11.186 6.105 19.532 6.105 8.339 0 14.849-2.032 19.531-6.105 4.677-4.066 8.134-8.744 10.376-14.037h39.674c-1.63 7.124-3.92 13.328-6.865 18.615-2.954 5.293-6.211 9.871-9.768 13.734-3.56 3.868-7.377 7.071-11.443 9.613-4.073 2.546-8.041 4.63-11.903 6.256-9.36 3.663-19.227 5.493-29.602 5.493-13.633-.203-25.74-3.051-36.317-8.544-4.478-2.442-8.904-5.541-13.276-9.307-4.378-3.763-8.24-8.495-11.597-14.192-3.357-5.694-6.055-12.512-8.087-20.447-2.036-7.935-3.051-17.191-3.051-27.773 0-10.576 1.015-19.836 3.051-27.771 2.032-7.935 4.73-14.8 8.087-20.599 3.357-5.799 7.219-10.629 11.597-14.497 4.372-3.863 8.798-7.02 13.276-9.46 10.577-5.694 22.684-8.746 36.317-9.155 11.186.409 21.667 2.745 31.434 7.017 4.066 1.833 8.186 4.227 12.359 7.174 4.168 2.951 8.034 6.612 11.597 10.986 3.557 4.378 6.714 9.565 9.462 15.564 2.745 6.004 4.729 12.97 5.95 20.905Zm67.439 97.047h50.051l50.354-154.728h-37.538l-37.842 115.666-37.841-115.666h-37.538l50.354 154.728Zm154.111-118.41v68.056c.61 2.44 1.73 4.682 3.36 6.714 1.42 1.631 3.41 3.157 5.95 4.578 2.54 1.425 5.85 2.136 9.92 2.136h23.19v36.927h-37.23c-7.93-.812-15.06-3.052-21.36-6.714-5.3-3.052-10.13-7.577-14.5-13.58-4.375-6.001-6.559-14.293-6.559-24.874V120.937h37.229v20.997h35.1v36.317h-35.1Zm66.53-16.022c-4.47 6.003-6.71 14.295-6.71 24.872v109.561h37.54V192.288c.61-2.44 1.72-4.678 3.35-6.714 1.43-1.624 3.41-3.151 5.96-4.578 2.54-1.42 5.84-2.136 9.91-2.136h28.69v-36.926h-42.72c-7.94.815-15.06 3.051-21.37 6.713-5.29 3.052-10.17 7.582-14.65 13.582Zm167.24 11.749c-7.53 0-13.58 1.526-18.16 4.578-4.58 3.051-8.09 6.866-10.53 11.443-2.44 4.578-4.07 9.514-4.88 14.803-.81 5.293-1.22 10.175-1.22 14.649 0 4.478.41 9.359 1.22 14.648.81 5.294 2.44 10.223 4.88 14.801 2.44 4.578 5.95 8.392 10.53 11.444 4.58 3.053 10.63 4.578 18.16 4.578 7.53 0 13.58-1.525 18.16-4.578 4.58-3.052 8.09-6.866 10.53-11.444 2.44-4.578 4.06-9.507 4.88-14.801.81-5.289 1.22-10.17 1.22-14.648 0-4.474-.41-9.356-1.22-14.649-.82-5.289-2.44-10.225-4.88-14.803-2.44-4.577-5.95-8.392-10.53-11.443-4.58-3.052-10.63-4.578-18.16-4.578Zm-72.33 45.473c0-10.577 1.02-19.838 3.05-27.773 2.03-7.935 4.73-14.801 8.09-20.6 3.36-5.798 7.22-10.628 11.6-14.496 4.37-3.863 8.79-7.018 13.27-9.46 10.58-5.695 22.69-8.746 36.32-9.156 13.43.41 25.43 3.461 36.01 9.156 4.47 2.442 8.9 5.597 13.28 9.46 4.37 3.868 8.24 8.698 11.59 14.496 3.36 5.799 6.11 12.665 8.24 20.6 2.14 7.935 3.21 17.196 3.21 27.773 0 10.58-1.07 19.836-3.21 27.771-2.13 7.934-4.88 14.754-8.24 20.447-3.35 5.699-7.22 10.429-11.59 14.191-4.38 3.767-8.81 6.866-13.28 9.308-10.58 5.493-22.58 8.34-36.01 8.544-13.63-.204-25.74-3.051-36.32-8.544-4.48-2.442-8.9-5.541-13.27-9.308-4.38-3.762-8.24-8.492-11.6-14.191-3.36-5.693-6.06-12.513-8.09-20.447-2.03-7.935-3.05-17.191-3.05-27.771Zm237.59-81.179c-3.77-.202-5.96-.306-6.57-.306-.81 0-3.05.104-6.71.306-3.66.204-8.04 1.067-13.12 2.594-5.09 1.526-10.48 3.92-16.18 7.171-5.7 3.257-10.98 7.935-15.87 14.04-4.88 6.102-8.9 13.785-12.05 23.041-3.16 9.259-4.73 20.703-4.73 34.333v77.21h37.23v-77.21c0-4.474.41-9.052 1.22-13.734.81-4.678 2.34-8.95 4.58-12.818 2.24-3.863 5.39-7.066 9.46-9.614 4.07-2.541 9.46-3.814 16.17-3.814 6.72 0 12.11 1.273 16.18 3.814 4.07 2.548 7.22 5.751 9.46 9.614 2.23 3.868 3.76 8.14 4.58 12.818.81 4.682 1.22 9.26 1.22 13.734v77.21h37.23v-77.21c0-13.63-1.58-25.074-4.73-34.333-3.16-9.256-7.17-16.939-12.05-23.041-4.89-6.105-10.18-10.783-15.87-14.04-5.7-3.251-11.1-5.645-16.18-7.171-5.09-1.527-9.51-2.39-13.27-2.594ZM75.319 329.45 4.639 218.175a29.566 29.566 0 0 1-.226-31.44l91.133-147.51A32.092 32.092 0 0 1 122.962 24l131.566.47c.296 0 .589.01.879.025 12.829.66 19.864 15.342 12.789 26.066l-91.307 138.363c-3.432 7.06-11.411 11.491-20.111 9.5-6.44-1.472-11.65-6.73-13.088-13.176-.987-4.425-.306-8.642 1.514-12.169a.047.047 0 0 0 .006-.015c.002-.006.003-.01.007-.015l.021-.034a18.145 18.145 0 0 1 1.912-2.925l13.903-21.254c4.119-6.128.281-14.44-7.057-15.283l-33.416-2.538a22.629 22.629 0 0 0-16.933 5.814c-6.049 7.076-32.912 50.41-45.175 70.723-3.958 6.556-3.481 14.743.956 20.984l-.153.074 42.552 66.825 7.983 12.679a20.51 20.51 0 0 1 2.165 3.442l.299.473-.021.107c1.566 3.408 2.226 7.319 1.649 11.426-1.213 8.606-8.09 15.736-16.664 17.168-9.567 1.6-18.163-3.46-21.92-11.28ZM311.115 61.837l71.175 110.96a29.562 29.562 0 0 1 .366 31.437L292.183 352.15a32.094 32.094 0 0 1-27.349 15.347l-131.566.119c-.296 0-.589-.006-.879-.021-12.831-.602-19.931-15.253-12.905-26.008l90.687-138.773c3.402-7.072 11.36-11.539 20.069-9.588 6.446 1.444 11.68 6.678 13.146 13.118 1.007 4.422.345 8.639-1.46 12.178l-.009.028-.025.033a17.537 17.537 0 0 1-1.899 2.935l-13.805 21.317c-4.092 6.147-.217 14.441 7.124 15.25l33.425 2.391a22.654 22.654 0 0 0 16.911-5.89c6.016-7.103 32.683-50.556 44.855-70.924 3.93-6.575 3.42-14.758-1.048-20.979l.153-.076-42.852-66.636-8.037-12.642a20.47 20.47 0 0 1-2.183-3.433l-.299-.47.021-.107c-1.582-3.402-2.257-7.31-1.698-11.42 1.17-8.612 8.016-15.77 16.584-17.241 9.561-1.643 18.179 3.377 21.971 11.179Z" clip-rule="evenodd"/></svg>

<svg width="1500" height="400" viewBox="0 0 1500 400" fill="none" xmlns="http://www.w3.org/2000/svg">
<path fill-rule="evenodd" clip-rule="evenodd" d="M574.569 264.922C582.094 264.922 588.151 263.396 592.726 260.345C597.304 257.293 600.863 253.479 603.409 248.901C605.95 244.323 607.629 239.392 608.444 234.098C609.255 228.811 609.665 223.927 609.665 219.45C609.665 214.978 609.255 210.094 608.444 204.801C607.629 199.514 605.95 194.578 603.409 190C600.863 185.422 597.304 181.608 592.726 178.557C588.151 175.503 582.094 173.979 574.569 173.979C567.04 173.979 560.989 175.503 556.411 178.557C551.833 181.608 548.323 185.422 545.883 190C543.441 194.578 541.81 199.514 540.999 204.801C540.184 210.094 539.778 214.978 539.778 219.45C539.778 223.927 540.184 228.811 540.999 234.098C541.81 239.392 543.441 244.323 545.883 248.901C548.323 253.479 551.833 257.293 556.411 260.345C560.989 263.396 567.04 264.922 574.569 264.922ZM609.665 159.899V90.6641H645.982V219.146C645.982 229.726 644.961 238.982 642.929 246.917C640.893 254.852 638.199 261.717 634.842 267.516C631.485 273.315 627.671 278.098 623.399 281.861C619.127 285.628 614.748 288.727 610.275 291.169C599.694 296.662 587.793 299.509 574.569 299.713C560.935 299.509 548.828 296.662 538.252 291.169C533.776 288.727 529.35 285.628 524.978 281.861C520.6 278.098 516.737 273.367 513.38 267.67C510.023 261.975 507.324 255.157 505.291 247.222C503.257 239.288 502.24 230.032 502.24 219.45C502.24 208.873 503.203 199.613 505.14 191.679C507.072 183.744 509.612 176.878 512.769 171.079C515.922 165.281 519.483 160.451 523.451 156.582C527.417 152.72 531.538 149.563 535.81 147.123C545.577 141.428 556.763 138.377 569.382 137.967C575.686 138.577 581.788 140.103 587.691 142.545C592.774 144.785 597.964 148.19 603.257 152.768C606.782 155.82 608.918 158.197 609.665 159.899ZM771.107 199.614C770.086 196.361 768.817 193.106 767.293 189.849C765.766 186.596 763.678 183.644 761.036 180.999C758.389 178.355 755.237 176.267 751.575 174.742C747.912 173.216 743.64 172.453 738.758 172.453C733.875 172.453 729.603 173.216 725.94 174.742C722.277 176.267 719.12 178.355 716.479 180.999C713.833 183.644 711.697 186.596 710.07 189.849C708.44 193.106 707.219 196.361 706.408 199.614H771.107ZM809.56 199.614C809.966 202.665 810.324 205.822 810.627 209.075C810.933 212.332 811.085 215.789 811.085 219.45V224.943H704.272C704.677 228.406 705.187 231.915 705.798 235.474C706.408 239.034 707.425 242.545 708.849 246.002C711.085 251.295 714.544 255.973 719.226 260.039C723.904 264.112 730.412 266.144 738.758 266.144C747.097 266.144 753.607 264.112 758.289 260.039C762.966 255.973 766.423 251.295 768.665 246.002H808.339C806.709 253.126 804.419 259.33 801.474 264.617C798.52 269.91 795.263 274.488 791.706 278.351C788.146 282.219 784.329 285.422 780.263 287.964C776.19 290.51 772.222 292.594 768.36 294.22C759 297.883 749.133 299.713 738.758 299.713C725.125 299.51 713.018 296.662 702.441 291.169C697.963 288.727 693.537 285.628 689.165 281.862C684.787 278.099 680.925 273.367 677.568 267.67C674.211 261.976 671.513 255.158 669.481 247.223C667.445 239.288 666.43 230.032 666.43 219.45C666.43 208.874 667.445 199.614 669.481 191.679C671.513 183.744 674.211 176.879 677.568 171.08C680.925 165.281 684.787 160.451 689.165 156.583C693.537 152.72 697.963 149.563 702.441 147.123C713.018 141.429 725.125 138.377 738.758 137.968C749.944 138.377 760.425 140.713 770.192 144.985C774.258 146.818 778.378 149.212 782.551 152.159C786.719 155.11 790.585 158.771 794.148 163.145C797.705 167.523 800.862 172.71 803.61 178.709C806.355 184.713 808.339 191.679 809.56 199.614ZM876.999 296.661H902.024H927.05L977.404 141.933H939.866L902.024 257.599L864.183 141.933H826.645L876.999 296.661ZM1031.11 178.251V246.307C1031.72 248.747 1032.84 250.989 1034.47 253.021C1035.89 254.652 1037.88 256.178 1040.42 257.599C1042.96 259.024 1046.27 259.735 1050.34 259.735H1073.53V296.662H1036.3C1028.37 295.85 1021.24 293.61 1014.94 289.948C1009.64 286.896 1004.81 282.371 1000.44 276.368C996.065 270.367 993.881 262.075 993.881 251.494V120.937H1031.11V141.934H1066.21V178.251H1031.11ZM1097.64 162.229C1093.17 168.232 1090.93 176.524 1090.93 187.101V296.662H1128.47V192.288C1129.08 189.848 1130.19 187.61 1131.82 185.574C1133.25 183.95 1135.23 182.423 1137.78 180.996C1140.32 179.576 1143.62 178.86 1147.69 178.86H1176.38V141.934H1133.66C1125.72 142.749 1118.6 144.985 1112.29 148.647C1107 151.699 1102.12 156.229 1097.64 162.229ZM1264.88 173.978C1257.35 173.978 1251.3 175.504 1246.72 178.556C1242.14 181.607 1238.63 185.422 1236.19 189.999C1233.75 194.577 1232.12 199.513 1231.31 204.802C1230.5 210.095 1230.09 214.977 1230.09 219.451C1230.09 223.929 1230.5 228.81 1231.31 234.099C1232.12 239.393 1233.75 244.322 1236.19 248.9C1238.63 253.478 1242.14 257.292 1246.72 260.344C1251.3 263.397 1257.35 264.922 1264.88 264.922C1272.41 264.922 1278.46 263.397 1283.04 260.344C1287.62 257.292 1291.13 253.478 1293.57 248.9C1296.01 244.322 1297.63 239.393 1298.45 234.099C1299.26 228.81 1299.67 223.929 1299.67 219.451C1299.67 214.977 1299.26 210.095 1298.45 204.802C1297.63 199.513 1296.01 194.577 1293.57 189.999C1291.13 185.422 1287.62 181.607 1283.04 178.556C1278.46 175.504 1272.41 173.978 1264.88 173.978ZM1192.55 219.451C1192.55 208.874 1193.57 199.613 1195.6 191.678C1197.63 183.743 1200.33 176.877 1203.69 171.078C1207.05 165.28 1210.91 160.45 1215.29 156.582C1219.66 152.719 1224.08 149.564 1228.56 147.122C1239.14 141.427 1251.25 138.376 1264.88 137.966C1278.31 138.376 1290.31 141.427 1300.89 147.122C1305.36 149.564 1309.79 152.719 1314.17 156.582C1318.54 160.45 1322.41 165.28 1325.76 171.078C1329.12 176.877 1331.87 183.743 1334 191.678C1336.14 199.613 1337.21 208.874 1337.21 219.451C1337.21 230.031 1336.14 239.287 1334 247.222C1331.87 255.156 1329.12 261.976 1325.76 267.669C1322.41 273.368 1318.54 278.098 1314.17 281.86C1309.79 285.627 1305.36 288.726 1300.89 291.168C1290.31 296.661 1278.31 299.508 1264.88 299.712C1251.25 299.508 1239.14 296.661 1228.56 291.168C1224.08 288.726 1219.66 285.627 1215.29 281.86C1210.91 278.098 1207.05 273.368 1203.69 267.669C1200.33 261.976 1197.63 255.156 1195.6 247.222C1193.57 239.287 1192.55 230.031 1192.55 219.451ZM1430.14 138.272C1426.37 138.07 1424.18 137.966 1423.57 137.966C1422.76 137.966 1420.52 138.07 1416.86 138.272C1413.2 138.476 1408.82 139.339 1403.74 140.866C1398.65 142.392 1393.26 144.786 1387.56 148.037C1381.86 151.294 1376.58 155.972 1371.69 162.077C1366.81 168.179 1362.79 175.862 1359.64 185.118C1356.48 194.377 1354.91 205.821 1354.91 219.451V296.661H1392.14V219.451C1392.14 214.977 1392.55 210.399 1393.36 205.717C1394.17 201.039 1395.7 196.767 1397.94 192.899C1400.18 189.036 1403.33 185.833 1407.4 183.285C1411.47 180.744 1416.86 179.471 1423.57 179.471C1430.29 179.471 1435.68 180.744 1439.75 183.285C1443.82 185.833 1446.97 189.036 1449.21 192.899C1451.44 196.767 1452.97 201.039 1453.79 205.717C1454.6 210.399 1455.01 214.977 1455.01 219.451V296.661H1492.24V219.451C1492.24 205.821 1490.66 194.377 1487.51 185.118C1484.35 175.862 1480.34 168.179 1475.46 162.077C1470.57 155.972 1465.28 151.294 1459.59 148.037C1453.89 144.786 1448.49 142.392 1443.41 140.866C1438.32 139.339 1433.9 138.476 1430.14 138.272Z" fill="#442b75"/>
<path fill-rule="evenodd" clip-rule="evenodd" d="M75.3188 329.45L4.63923 218.175C-1.46499 208.608 -1.5505 196.391 4.41326 186.735L95.5461 39.2259C101.415 29.726 111.798 23.9607 122.962 24.0002L254.528 24.4707C254.824 24.4707 255.117 24.4798 255.407 24.4951C268.236 25.1547 275.271 39.8366 268.196 50.561L176.889 188.924C173.457 195.984 165.478 200.415 156.778 198.424C150.338 196.952 145.128 191.694 143.69 185.248C142.703 180.823 143.384 176.606 145.204 173.079C145.207 173.074 145.209 173.069 145.21 173.064C145.212 173.058 145.213 173.054 145.217 173.049L145.238 173.015C145.782 171.977 146.423 170.997 147.15 170.09L161.053 148.836C165.172 142.708 161.334 134.396 153.996 133.553L120.58 131.015C114.378 130.542 108.252 132.646 103.647 136.829C97.5982 143.905 70.7353 187.239 58.4719 207.552C54.5143 214.108 54.9907 222.295 59.4276 228.536L59.275 228.61L101.827 295.435L109.81 308.114C110.64 309.183 111.367 310.334 111.975 311.556L112.274 312.029L112.253 312.136C113.819 315.544 114.479 319.455 113.902 323.562C112.689 332.168 105.812 339.298 97.2378 340.73C87.6708 342.33 79.0748 337.27 75.3188 329.45ZM311.115 61.837L382.29 172.797C388.437 182.337 388.577 194.554 382.656 204.234L292.183 352.15C286.356 361.674 275.999 367.488 264.834 367.497L133.268 367.616C132.972 367.616 132.679 367.61 132.389 367.595C119.558 366.993 112.458 352.342 119.484 341.587L210.171 202.814C213.573 195.742 221.531 191.275 230.24 193.226C236.686 194.67 241.92 199.904 243.386 206.344C244.393 210.766 243.731 214.983 241.926 218.522L241.917 218.55L241.892 218.583C241.355 219.628 240.72 220.608 239.993 221.518L226.188 242.835C222.096 248.982 225.971 257.276 233.312 258.085L266.737 260.476C272.945 260.919 279.058 258.788 283.648 254.586C289.664 247.483 316.331 204.03 328.503 183.662C332.433 177.087 331.923 168.904 327.455 162.683L327.608 162.607L284.756 95.9706L276.719 83.3285C275.882 82.2628 275.15 81.1146 274.536 79.8962L274.237 79.4259L274.258 79.3191C272.676 75.9173 272.001 72.0087 272.56 67.8985C273.73 59.2872 280.576 52.1295 289.144 50.6576C298.705 49.0147 307.323 54.0349 311.115 61.837Z" fill="#442b75"/>
</svg>
